X:1
T:Thy Kingdom Come
T:Charles Hutchinson Gabriel
T:Thy Kingdom Come
T:Public Domain
T:Public Domain
T:Public Domain
C:Charles Hutchinson Gabriel
Z:Public Domain
%%score ( 1 2 ) ( 3 4 )
L:1/8
M:4/4
K:E
V:1 treble 
V:2 treble 
V:3 bass 
V:4 bass 
V:1
 B,[B,E][EG] | [EB]3 [EB] [Ec][EB][EA][EG] | [FB] [DF]4 [EG][FA][GB] | %3
w: 1.~Thy king- dom|and shall not each one sing|it, On land and sea,|
w: 2.~Thy king- dom|O haste to tell the mes-|sage, The world is dy-|
w: 3.~Thy king- dom|He waits to bless the na-|tions, ’Tis ours to bring|
 [Fd]3 [Ac] [GB][Ac][GB][FA] | [EG]4 z B,[B,E][EG] | [EB]3 [EB] [Ge][GB][DA][EG] | %6
w: wher- e’er His ban- ner goes?|Thy king- dom come!|we not strive to bring it,|
w: ing for the Word of God;|Send out the light,|Christ may see the fruit- age,|
w: them quick- ly to His feet;|Make this the time|tram- ple sin’s foun- da- tions,|
 [EF] [Ec]4 [CE][CD][CE] | [EB]>[E^A] [EB]3 [D=A][DG][DF] | E4 z ||"^Refrain" [GB][GB][Ge] | %10
w: The grace that saves the|world from hu- man woes? Thy|king-|come! the glo-|
w: The world re- deemed that|His own feet have trod. *|||
w: And lead the err- ing|to the mer- cy seat. *|||
 [Ad]3 [DF] [FA][GB][Fd][Ac] | [Ac] [GB]4 [EG][EB][EG] | [DB]3 [DF] [Ec][Ge][Fd][Ec] | %13
w: rious tri- umph has- ten, When|peo- ples all shall crown|Him King of kings; ~ ~|
w: |||
w: |||
 DEFG [AB]B,[B,E][EG] | [EB]3 [EB] [Ge][GB][DA][EG] | [EF] [Ec]3 z [CE][CD][CE] | %16
w: ~ ~Saints shall re- joice, and an- gels|to lis- ten, While earth His|ev- er- last- ing glo-|
w: |||
w: |||
 [EB]>[E^A] [EB]3 [D=A][DG][DF] | E4- E |] %18
w: ry sings. * * * *||
w: ||
w: ||
V:2
 B, x2 | x8 | x8 | x8 | x5 B, x2 | x8 | x8 | x8 | E4 x || x3 | x8 | x8 | x8 | B4- B, x3 | x8 | x8 | %16
w: come!||||shall||||dom|||||stop *|||
w: come!||||that||||||||||||
w: come!||||to||||||||||||
 x8 | E4- E |] %18
w: ||
w: ||
w: ||
V:3
 [E,G,][E,G,][E,B,] | [E,G,]3 [E,G,] [E,A,][E,G,][E,C][E,B,] | %2
w: ~ ~ ~|~ ~ ~ ~ ~ ~|
 [D,B,] [B,,B,]4 [B,,B,][B,,B,][B,,B,] | [B,,B,]3 [B,,B,] [B,,B,][B,,B,][B,,B,][B,,B,] | %4
w: ~ ~ ~ ~ ~|~ ~ ~ ~ ~ ~|
 [E,B,]4 z [E,G,][E,G,][E,B,] | [E,G,]3 [E,G,] [E,B,][E,B,][F,B,][G,B,] | %6
w: ~ ~ ~ ~|~ ~ ~ ~ ~ ~|
 [A,C] A,4 [A,,=A,][A,,A,][^A,,^^F,] | [B,,G,]>[=C,^^F,] [B,,G,]3 [B,,=C][B,,B,][B,,A,] | %8
w: ~ ~ ~ ~ ~|~ ~ ~ ~ ~ ~|
 [E,G,]4 z || [E,B,][E,B,][E,B,] | [F,B,]3 B, [B,,B,][B,,B,][B,,B,][B,,D] | %11
w: ~|~ ~ ~|~ ~ ~ ~ ~ ~|
 [G,E] [E,E]4 [E,B,][E,G,][E,B,] | [F,B,]3 [F,B,] [F,^A,][F,A,][F,A,][F,A,] | %13
w: ~ ~ ~ ~ ~|~ ~ ~ shall crown Him|
 [B,,B,][B,,G,][B,,A,][B,,B,] [B,,D][E,G,][E,G,][E,B,] | [E,G,]3 [E,G,] [E,B,][E,B,][F,B,][G,B,] | %15
w: King of kings * * * * *||
 [A,C] A,3 z [A,,=A,][A,,A,][^A,,^^F,] | [B,,G,]>[=C,^^F,] [B,,G,]3 [B,,=C][B,,B,][B,,A,] | %17
w: ||
 [E,G,]4- [E,G,] |] %18
w: |
V:4
 x3 | x8 | x8 | x8 | x8 | x8 | x ^A,4 x3 | x8 | x5 || x3 | x3 B, x4 | x8 | x8 | x8 | x8 | %15
w: ||||||~||||~|||||
 x ^A,3 x4 | x8 | x5 |] %18
w: |||

